build/logo/OpenSearchSolid.svg

<svg xmlns="http://www.w3.org/2000/svg" fill="none" viewBox="0 0 24 24" focusable="false"><path d="M0 0H24V24H0z"/><path fill="#74767B" fill-rule="evenodd" d="M12 3C7.0293 3 3 7.02943 3 12C3 16.9706 7.0293 21 12 21C16.9697 21 20.999 16.9706 20.999 12C20.999 7.02943 16.9697 3 12 3ZM11.0488 4.7016C11.1865 4.68515 11.3252 4.67564 11.4639 4.67308C12.0098 4.66295 12.5566 4.76067 13.1064 4.96622C13.1846 4.99547 13.2627 5.02658 13.3389 5.05956C13.9001 5.30101 14.4183 5.64226 14.8936 6.08331C15.1572 6.32803 15.3952 6.59201 15.6074 6.87524C15.832 7.17415 16.0273 7.49451 16.1943 7.8363C16.4131 8.28519 16.5703 8.74655 16.667 9.22038C16.7217 9.49013 16.7559 9.76393 16.7705 10.0418C16.7891 10.3456 16.7832 10.647 16.7539 10.9462C16.7256 11.2366 16.6748 11.5249 16.6016 11.8109C16.5234 12.1182 16.4219 12.415 16.2959 12.7015C16.1836 12.9566 16.0527 13.2035 15.9023 13.4421C15.8398 13.5432 15.7549 13.6208 15.6484 13.6752C15.542 13.7295 15.4297 13.7529 15.3105 13.7453C15.1318 13.7338 14.9824 13.6606 14.8643 13.5259C14.7461 13.3911 14.6924 13.2341 14.7031 13.055C14.7402 12.4861 14.6475 11.9984 14.4268 11.5919C14.2451 11.2575 13.9727 10.9712 13.6104 10.7328C13.3125 10.5373 12.957 10.3756 12.5439 10.2478C12.3076 10.1745 11.9141 10.0831 11.5635 10.017C11.2829 9.94912 11.0693 9.89417 10.9229 9.85219C10.6641 9.778 10.4355 9.69852 10.2373 9.61374C9.67155 9.37128 9.25619 9.04215 8.99121 8.62637C8.85645 8.41537 8.75684 8.19458 8.69238 7.96399C8.639 7.77351 8.6097 7.57619 8.60449 7.37234C8.60059 7.19336 8.61426 7.01788 8.64648 6.84593C8.69238 6.60585 8.77344 6.37262 8.8916 6.14624C8.97852 5.97916 9.08105 5.82465 9.19824 5.68272C9.35352 5.49461 9.53613 5.32861 9.74512 5.18471C9.85938 5.10608 9.97754 5.03659 10.1016 4.97624C10.3916 4.83371 10.708 4.74216 11.0488 4.7016ZM11.2021 5.99248C10.9678 6.02037 10.7578 6.08911 10.5713 6.19868C10.4512 6.28151 10.2588 6.43472 10.1738 6.54469C10.125 6.60754 10.082 6.67484 10.0449 6.74654C9.97852 6.87375 9.93555 7.00433 9.91602 7.13832C9.90625 7.20427 9.90234 7.27104 9.9043 7.33864C9.90625 7.4225 9.91797 7.50415 9.9375 7.5836C9.9668 7.70326 10.0176 7.81792 10.0869 7.92758C10.208 8.1179 10.4287 8.28163 10.749 8.41876C10.8965 8.48201 11.0742 8.54321 11.2803 8.60236C11.4102 8.63947 11.6406 8.69753 11.9033 8.76126C12.3027 8.83649 12.6445 8.91803 12.9287 9.00587C13.4587 9.16993 13.9238 9.38337 14.3242 9.64621C14.7881 9.95105 15.1875 10.3626 15.4629 10.7891C15.4834 10.5675 15.4863 10.3441 15.4727 10.1192C15.4609 9.89119 15.4316 9.66682 15.3848 9.44609C15.3105 9.09018 15.1904 8.74368 15.0254 8.40663C14.8945 8.13741 14.7402 7.88522 14.5635 7.65007C14.3984 7.4306 14.2139 7.22597 14.0088 7.03619C13.5977 6.65465 13.1377 6.36746 12.6514 6.18387C12.2012 6.01558 11.7588 5.94785 11.3242 5.98067C11.2832 5.98372 11.2432 5.98767 11.2021 5.99248ZM10.5254 16.9406C10.6631 16.937 10.7998 16.9264 10.9375 16.909C11.2744 16.866 11.5869 16.7727 11.874 16.6292C11.9961 16.5683 12.1133 16.4983 12.2266 16.4193C12.4323 16.2749 12.6117 16.1088 12.7646 15.9211C12.8799 15.7793 12.9795 15.6251 13.0645 15.4586C13.1797 15.2332 13.2588 15.0013 13.3018 14.7628C13.333 14.5919 13.3457 14.4176 13.3389 14.24C13.332 14.0377 13.3018 13.8422 13.2471 13.6536C13.1816 13.4254 13.0811 13.2072 12.9463 12.9991C12.68 12.5887 12.2653 12.2656 11.7021 12.0298C11.5049 11.9475 11.2783 11.8706 11.0205 11.7992C10.875 11.7589 10.6641 11.7062 10.3857 11.6413C10.0391 11.5789 9.64844 11.4916 9.41406 11.4211C9.00488 11.2983 8.65332 11.1415 8.35742 10.9509C7.99707 10.7186 7.72656 10.4384 7.54492 10.1101C7.32357 9.71104 7.22852 9.23061 7.25977 8.66884C7.26497 8.57924 7.25391 8.49532 7.22656 8.41707C7.19922 8.33882 7.1556 8.26622 7.0957 8.19933C7.03581 8.13242 6.96842 8.08099 6.89355 8.04504C6.81868 8.00909 6.73665 7.98862 6.64746 7.98361C6.52832 7.97696 6.41602 8.00125 6.31055 8.05646C6.2041 8.11168 6.12012 8.19005 6.05762 8.29158C5.91113 8.52914 5.78353 8.77474 5.6748 9.02838C5.55241 9.31307 5.45345 9.60793 5.37793 9.91287C5.30827 10.1968 5.26042 10.4826 5.23438 10.7705C5.20833 11.067 5.2054 11.3658 5.22559 11.6665C5.24251 11.9413 5.27897 12.2119 5.33496 12.4784C5.43392 12.9469 5.59375 13.4032 5.81445 13.8461C5.9834 14.1833 6.17871 14.4989 6.40332 14.7932C6.61621 15.0719 6.85352 15.3314 7.11719 15.5717C7.59115 16.0044 8.10677 16.3381 8.66406 16.5726C8.74121 16.6048 8.81836 16.6351 8.89648 16.6636C9.44238 16.8626 9.98535 16.955 10.5254 16.9406ZM11.3936 15.4107C11.2109 15.5204 11.0039 15.59 10.7734 15.6194C10.7334 15.6244 10.6943 15.6286 10.6543 15.6319C10.2246 15.6681 9.78711 15.6048 9.3418 15.4422C8.85938 15.2649 8.40332 14.9853 7.99316 14.6115C7.79004 14.4258 7.60645 14.2252 7.44141 14.0097C7.26465 13.7789 7.11035 13.5311 6.97852 13.2662C6.81348 12.9347 6.69238 12.5936 6.61523 12.2427C6.56738 12.025 6.53613 11.8036 6.52246 11.5784C6.50781 11.3633 6.50879 11.1496 6.52539 10.9373C6.80273 11.3574 7.19043 11.7452 7.65234 12.0433C8.05143 12.3004 8.514 12.508 9.04004 12.6662C9.32227 12.7508 9.66113 12.8288 10.0566 12.9C10.3174 12.9609 10.5449 13.0164 10.6738 13.052C10.8783 13.1087 11.0537 13.1677 11.2002 13.229C11.5166 13.3615 11.7354 13.5208 11.8555 13.7068C11.9258 13.8142 11.9756 13.9267 12.0059 14.0442C12.0254 14.122 12.0371 14.2021 12.04 14.2844C12.042 14.3506 12.0391 14.4161 12.0303 14.4809C12.012 14.613 11.971 14.742 11.9072 14.8678C11.8711 14.9385 11.8291 15.005 11.7812 15.0671C11.6982 15.1762 11.5117 15.3281 11.3936 15.4107ZM19.293 12.0024C19.291 12.489 19.2441 12.9667 19.1514 13.4355C19.0635 13.8801 18.9349 14.3167 18.7656 14.7453C18.5811 15.2135 18.3545 15.6547 18.0859 16.0687C17.8496 16.4337 17.5801 16.7776 17.2793 17.1005C16.9092 17.4775 16.499 17.8196 16.0684 18.1042C15.6865 18.3564 15.2812 18.5723 14.8516 18.7519C14.3828 18.9478 13.9043 19.0926 13.416 19.1863C12.9512 19.2757 12.4766 19.3187 11.9941 19.3154C11.6299 19.3129 11.3457 19.0249 11.3486 18.6609C11.3506 18.2969 11.6387 18.0129 12.0029 18.0154C12.3968 18.0181 12.7839 17.9832 13.1641 17.9107C13.5664 17.8337 13.9629 17.7142 14.3496 17.5525C14.6982 17.4067 15.0283 17.2318 15.3389 17.0278C15.6956 16.793 16.0273 16.5196 16.334 16.2076C16.5771 15.9464 16.7949 15.6685 16.9873 15.374C17.2119 15.0282 17.4023 14.6595 17.5566 14.2678C17.6963 13.9152 17.8018 13.556 17.875 13.1901C17.9521 12.8001 17.9912 12.4026 17.9932 11.9976C17.9941 11.6336 18.2812 11.3486 18.6455 11.35C19.0088 11.3513 19.2939 11.6384 19.293 12.0024Z"/></svg>

<svg xmlns="http://www.w3.org/2000/svg" fill="none" viewBox="0 0 24 24" focusable="false"><path fill="#74767B" fill-rule="evenodd" d="M12 3c-4.98 0-9 4.02-9 9 0 4.97 4.02 9 9 9 4.96 0 8.99-4.03 8.99-9 0-4.98-4.03-9-8.99-9m-.96 1.7q.21-.03.42-.03c.54-.01 1.09.09 1.64.29.08.03.16.06.23.09a5.8 5.8 0 0 1 2.27 1.82c.23.3.42.62.59.96.22.45.38.91.47 1.39.06.27.09.54.11.82.01.3.01.6-.02.9q-.045.435-.15.87a5.9 5.9 0 0 1-.7 1.63.64.64 0 0 1-.26.23c-.1.05-.22.08-.33.07a.61.61 0 0 1-.45-.22.62.62 0 0 1-.16-.47c.04-.57-.06-1.06-.28-1.46-.18-.34-.45-.62-.81-.86-.3-.2-.66-.36-1.07-.49-.24-.07-.63-.16-.98-.23-.28-.07-.5-.12-.64-.16q-.39-.12-.69-.24c-.56-.24-.98-.57-1.24-.99q-.21-.315-.3-.66c-.06-.19-.09-.39-.09-.59 0-.18.01-.36.04-.53.05-.24.13-.47.25-.7.08-.17.19-.32.3-.46.16-.19.34-.36.55-.5q.165-.12.36-.21c.29-.14.6-.23.94-.27m.16 1.29c-.24.03-.45.09-.63.2-.12.09-.32.24-.4.35-.05.06-.09.13-.13.2-.07.13-.11.26-.13.39-.01.07-.01.14-.01.2 0 .09.01.17.03.25.03.12.08.23.15.34.12.19.34.36.66.49.15.07.33.13.54.19.13.03.36.09.62.16q.6.105 1.02.24c.53.16 1 .38 1.4.64.46.31.86.72 1.14 1.14.02-.22.02-.44.01-.67a4 4 0 0 0-.09-.67c-.07-.35-.19-.7-.36-1.04-.13-.27-.28-.52-.46-.75-.17-.22-.35-.43-.56-.62-.41-.38-.87-.67-1.35-.85-.45-.17-.9-.24-1.33-.2-.04 0-.08 0-.12.01m-.68 10.95c.14-.01.27-.02.41-.04.34-.04.65-.13.94-.28.12-.06.24-.13.35-.21.21-.14.39-.31.54-.49.11-.15.21-.3.3-.47q.165-.33.24-.69c.03-.17.04-.35.03-.52 0-.21-.03-.4-.09-.59q-.09-.345-.3-.66c-.26-.41-.68-.73-1.24-.97-.2-.08-.43-.15-.68-.23-.15-.04-.36-.09-.64-.15-.35-.07-.74-.15-.97-.22-.41-.13-.76-.28-1.06-.47q-.54-.36-.81-.84c-.22-.4-.32-.88-.29-1.45.01-.09 0-.17-.03-.25a.7.7 0 0 0-.13-.22 1 1 0 0 0-.2-.15.54.54 0 0 0-.25-.06.6.6 0 0 0-.33.07c-.11.06-.19.14-.26.24-.14.23-.27.48-.38.73-.12.29-.22.58-.3.89-.07.28-.11.57-.14.86s-.03.59-.01.89c.02.28.05.55.11.81.1.47.26.93.48 1.37.17.34.36.65.59.95a5.623 5.623 0 0 0 2.26 1.78c.08.03.15.06.23.09.55.2 1.09.29 1.63.28m.87-1.53c-.18.11-.39.18-.62.2-.04.01-.08.01-.12.02-.43.03-.87-.03-1.31-.19-.49-.18-.94-.46-1.35-.83-.2-.19-.39-.39-.55-.61a4.7 4.7 0 0 1-.47-.74q-.24-.495-.36-1.02c-.05-.22-.08-.44-.09-.67a3.4 3.4 0 0 1 0-.64c.28.42.67.81 1.13 1.11.4.26.86.46 1.39.62.28.09.62.16 1.01.24.26.06.49.11.62.15.2.05.38.11.53.17.31.14.53.3.65.48.07.11.12.22.15.34.02.08.03.16.04.24 0 .07-.01.13-.01.2-.02.13-.06.26-.13.38-.03.07-.08.14-.12.2-.09.11-.27.26-.39.35m7.9-3.41c0 .48-.05.96-.14 1.43-.09.45-.22.88-.39 1.31-.18.47-.41.91-.68 1.32-.24.37-.5.71-.81 1.04-.37.37-.78.71-1.21 1-.38.25-.78.47-1.21.65a7.4 7.4 0 0 1-2.86.56.65.65 0 1 1 .01-1.3c.39 0 .78-.03 1.16-.1.4-.08.8-.2 1.18-.36.35-.15.68-.32.99-.53.36-.23.69-.51 1-.82.24-.26.46-.54.65-.83q.345-.525.57-1.11c.14-.35.25-.71.32-1.07q.12-.585.12-1.2c0-.36.29-.65.65-.64.36 0 .65.28.65.65"/></svg>
